svg/contacts.svg

<svg xmlns="http://www.w3.org/2000/svg" viewBox="0 0 24 24"><path d="M20 0H4v2h16zM4 24h16v-2H4zM20 4H4a2 2 0 0 0-2 2v12a2 2 0 0 0 2 2h16a2 2 0 0 0 2-2V6a2 2 0 0 0-2-2m-8 2.75A2.25 2.25 0 0 1 14.25 9 2.25 2.25 0 0 1 12 11.25 2.25 2.25 0 0 1 9.75 9 2.25 2.25 0 0 1 12 6.75M17 17H7v-1.5c0-1.67 3.33-2.5 5-2.5s5 .83 5 2.5z"/></svg>

<?xml version="1.0" encoding="UTF-8"?><!DOCTYPE svg PUBLIC "-//W3C//DTD SVG 1.1//EN" "http://www.w3.org/Graphics/SVG/1.1/DTD/svg11.dtd"><svg xmlns="http://www.w3.org/2000/svg" xmlns:xlink="http://www.w3.org/1999/xlink" version="1.1" id="mdi-contacts" width="24" height="24" viewBox="0 0 24 24"><path d="M20,0H4V2H20V0M4,24H20V22H4V24M20,4H4A2,2 0 0,0 2,6V18A2,2 0 0,0 4,20H20A2,2 0 0,0 22,18V6A2,2 0 0,0 20,4M12,6.75A2.25,2.25 0 0,1 14.25,9A2.25,2.25 0 0,1 12,11.25A2.25,2.25 0 0,1 9.75,9A2.25,2.25 0 0,1 12,6.75M17,17H7V15.5C7,13.83 10.33,13 12,13C13.67,13 17,13.83 17,15.5V17Z" /></svg>
